assets/Coconut/Flat/coconut_flat.svg

<svg width="32" height="32" viewBox="0 0 32 32" fill="none" xmlns="http://www.w3.org/2000/svg">
<path d="M26.2188 8.15565L22.8988 4.82565L4.81885 22.9057L8.14885 26.2357C13.1388 31.2257 21.2288 31.2257 26.2188 26.2357C31.2088 21.2357 31.2088 13.1457 26.2188 8.15565Z" fill="#6D4534"/>
<path d="M23.6189 20.2057C23.6589 19.4157 23.8389 18.6256 24.2289 17.8756C26.5589 13.3556 26.1889 8.11565 22.8989 4.82565C20.1089 2.03565 15.9289 1.34565 11.9689 2.60565C10.9489 2.92565 10.0489 3.68565 9.5689 4.65565C9.2689 5.26565 8.7189 5.94565 7.9989 6.55565C7.2789 7.17565 6.5189 7.60565 5.8989 7.79565C4.8789 8.09565 3.9989 8.86565 3.4989 9.83565C1.1589 14.3556 1.5289 19.6056 4.8189 22.9056C6.3889 24.4756 8.4089 25.3856 10.5689 25.6456C11.2689 25.7356 11.9089 25.9957 12.4589 26.3757C12.7989 26.6057 13.3289 26.7056 13.9189 26.6056C14.4889 26.5056 14.9989 26.2456 15.3389 25.9056C15.9089 25.3456 16.5489 24.8557 17.2589 24.5357C17.3389 24.4957 17.4089 24.4656 17.4889 24.4256C18.2489 24.0656 19.0489 23.9056 19.8289 23.8956C20.5889 23.8956 21.5489 23.4456 22.3589 22.6356C23.1389 21.8656 23.5889 20.9457 23.6189 20.2057Z" fill="#A56953"/>
<path d="M22.6089 18.8356C22.6089 18.3156 22.7289 17.7856 22.9789 17.2856C24.9689 13.3556 24.6289 8.80564 21.7689 5.94564C19.2589 3.43564 15.4489 2.86564 11.8889 4.11564C11.3589 4.31564 10.9189 4.77564 10.7689 5.31564C10.5789 5.99564 9.93889 6.89564 9.01889 7.68564C8.07889 8.48564 7.09888 8.96564 6.40889 9.01564C5.85888 9.05564 5.31889 9.39564 5.02889 9.91564C2.72889 13.9656 2.96889 18.7856 5.95889 21.7756C7.41889 23.2356 9.32888 24.0456 11.3589 24.2156C11.8789 24.2556 12.3289 24.4756 12.7189 24.7656C13.0689 25.0356 13.6589 25.1256 14.3089 24.9856C14.9389 24.8456 15.4789 24.5056 15.7889 24.1056C16.1189 23.6856 16.5389 23.3456 17.0189 23.1256C17.0989 23.0856 17.1789 23.0456 17.2589 23.0056C17.7589 22.7556 18.2889 22.6156 18.8089 22.6256C19.5689 22.6356 20.5389 22.1756 21.3489 21.3656C22.1489 20.5556 22.5989 19.5956 22.6089 18.8356Z" fill="#D3D3D3"/>
<path d="M21.519 17.3257C21.439 17.0657 21.469 16.7757 21.599 16.4957C23.139 13.2557 22.819 9.56566 20.479 7.22566C18.529 5.27566 15.649 4.72566 12.869 5.48566C12.329 5.63566 11.899 6.09566 11.769 6.63566C11.599 7.32566 10.949 8.23566 10.009 9.04566C9.06898 9.84566 8.06898 10.3357 7.38898 10.3757C6.81898 10.4157 6.28898 10.7757 6.04898 11.3057C4.55898 14.5157 4.90898 18.1557 7.21898 20.4657C8.49898 21.7457 10.169 22.4157 11.959 22.5257C12.219 22.5357 12.439 22.6357 12.609 22.8157C12.939 23.1557 13.589 23.2957 14.319 23.1357C15.019 22.9757 15.599 22.5857 15.889 22.1257C16.039 21.8957 16.249 21.7057 16.489 21.5957H16.499C16.769 21.4657 17.059 21.4457 17.319 21.5257C18.109 21.7857 19.339 21.3257 20.329 20.3357C21.319 19.3357 21.769 18.1157 21.519 17.3257Z" fill="#9B9B9B"/>
</svg>

<svg xmlns="http://www.w3.org/2000/svg" width="32" height="32" fill="none"><path fill="#6D4534" d="m26.219 8.156-3.32-3.33-18.08 18.08 3.33 3.33c4.99 4.99 13.08 4.99 18.07 0 4.99-5 4.99-13.09 0-18.08Z"/><path fill="#A56953" d="M23.619 20.206c.04-.79.22-1.58.61-2.33 2.33-4.52 1.96-9.76-1.33-13.05-2.79-2.79-6.97-3.48-10.93-2.22a4.089 4.089 0 0 0-2.4 2.05c-.3.61-.85 1.29-1.57 1.9-.72.62-1.48 1.05-2.1 1.24-1.02.3-1.9 1.07-2.4 2.04-2.34 4.52-1.97 9.77 1.32 13.07 1.57 1.57 3.59 2.48 5.75 2.74.7.09 1.34.35 1.89.73.34.23.87.33 1.46.23.57-.1 1.08-.36 1.42-.7.57-.56 1.21-1.05 1.92-1.37.08-.04.15-.07.23-.11.76-.36 1.56-.52 2.34-.53.76 0 1.72-.45 2.53-1.26.78-.77 1.23-1.69 1.26-2.43Z"/><path fill="#D3D3D3" d="M22.609 18.836c0-.52.12-1.05.37-1.55 1.99-3.93 1.65-8.48-1.21-11.34-2.51-2.51-6.32-3.08-9.88-1.83-.53.2-.97.66-1.12 1.2-.19.68-.83 1.58-1.75 2.37-.94.8-1.92 1.28-2.61 1.33-.55.04-1.09.38-1.38.9-2.3 4.05-2.06 8.87.93 11.86 1.46 1.46 3.37 2.27 5.4 2.44.52.04.97.26 1.36.55.35.27.94.36 1.59.22.63-.14 1.17-.48 1.48-.88.33-.42.75-.76 1.23-.98l.24-.12c.5-.25 1.03-.39 1.55-.38.76.01 1.73-.45 2.54-1.26.8-.81 1.25-1.77 1.26-2.53Z"/><path fill="#9B9B9B" d="M21.519 17.326c-.08-.26-.05-.55.08-.83 1.54-3.24 1.22-6.93-1.12-9.27-1.95-1.95-4.83-2.5-7.61-1.74-.54.15-.97.61-1.1 1.15-.17.69-.82 1.6-1.76 2.41-.94.8-1.94 1.29-2.62 1.33-.57.04-1.1.4-1.34.93-1.49 3.21-1.14 6.85 1.17 9.16 1.28 1.28 2.95 1.95 4.74 2.06.26.01.48.11.65.29.33.34.98.48 1.71.32.7-.16 1.28-.55 1.57-1.01.15-.23.36-.42.6-.53h.01c.27-.13.56-.15.82-.07.79.26 2.02-.2 3.01-1.19.99-1 1.44-2.22 1.19-3.01Z"/></svg>
